azure-patterns/svg-active-directory-black.svg

<svg xmlns="http://www.w3.org/2000/svg" viewBox="0 0 193 193">
                                
                            
    <path d="M60.4545 96.2654C60.4545 99.0538 59.496 101.755 58.0146 104.195L87.467 133.647C88.4255 133.299 89.0354 132.689 89.9068 132.427V58.0994L58.7117 89.2944C59.8445 91.3857 60.4545 93.7384 60.4545 96.2654Z" fill="#1A1A1F"></path>
    <path d="M135.479 89.7301L104.633 58.8835V132.166C105.591 132.776 106.201 133.124 107.073 133.734L136.525 104.282C134.956 101.842 134.085 99.0537 134.085 96.0039C134.085 93.7384 134.608 91.6471 135.479 89.7301Z" fill="#1A1A1F"></path>
    <path d="M186.542 83.9791L109.251 6.68855C106.201 3.29021 101.583 1.46033 96.9647 1.46033C92.3464 1.46033 88.0767 3.29021 84.6783 6.68855L7.03926 83.9791C3.64091 87.0289 1.81104 91.6472 1.81104 96.2654C1.81104 100.884 3.64091 105.153 7.03926 108.552L84.6783 185.842C87.7281 189.241 92.3464 191.071 96.9647 191.071C101.583 191.071 106.201 189.241 109.251 185.842L186.542 108.552C189.94 105.502 191.77 100.884 191.77 96.2654C191.77 91.6472 189.853 87.3775 186.542 83.9791ZM148.811 110.992C147.243 110.992 145.761 110.643 144.193 110.033L113.172 141.054C113.782 143.232 114.392 145.324 114.392 147.763C114.392 157.261 106.724 164.929 97.2261 164.929C87.7282 164.929 80.0601 157.261 80.0601 147.763C80.0601 145.324 80.67 143.145 81.6286 141.054L50.6078 110.12C49.0393 110.73 47.558 111.079 45.7281 111.079C37.7115 111.079 31.0019 104.369 31.0019 96.3526C31.0019 88.336 37.4501 81.6264 45.7281 81.6264C47.8194 81.6264 49.9107 82.0621 51.7406 82.9335L83.9813 50.6928C83.1099 48.7757 82.5871 46.7716 82.5871 44.506C82.5871 36.4894 89.0352 29.7799 97.3132 29.7799C105.243 29.7799 112.039 36.228 112.039 44.506C112.039 46.8587 111.429 49.1243 110.471 51.1284L142.363 82.8463C144.28 81.8878 146.546 81.2779 148.898 81.2779C156.915 81.2779 163.625 87.9874 163.625 96.2654C163.537 104.282 157.089 110.992 148.811 110.992Z" fill="#1A1A1F"></path>
    <path d="M108.554 148.199C108.554 154.56 103.5 159.614 97.1388 159.614C90.7778 159.614 85.7239 154.56 85.7239 148.199C85.7239 141.838 90.7778 136.784 97.1388 136.784C103.5 137.046 108.554 142.1 108.554 148.199Z" fill="#1A1A1F"></path>
    <path d="M105.243 44.4189C105.243 49.0372 101.583 52.6969 96.9645 52.6969C92.3463 52.6969 88.6865 49.0372 88.6865 44.4189C88.6865 39.8006 92.3463 36.1409 96.9645 36.1409C101.583 36.1409 105.243 39.8878 105.243 44.4189Z" fill="#1A1A1F"></path>
    <path d="M53.3959 96.2654C53.3959 100.884 49.7361 104.543 45.1179 104.543C40.4996 104.543 36.8398 100.884 36.8398 96.2654C36.8398 91.6472 40.4996 87.9874 45.1179 87.9874C49.7361 87.9874 53.3959 91.6472 53.3959 96.2654Z" fill="#1A1A1F"></path>
    <path d="M156.741 96.2654C156.741 100.884 153.081 104.543 148.463 104.543C143.844 104.543 140.185 100.884 140.185 96.2654C140.185 91.6472 143.844 87.9874 148.463 87.9874C153.081 87.9874 156.741 91.6472 156.741 96.2654Z" fill="#1A1A1F"></path>
</svg>

<svg xmlns="http://www.w3.org/2000/svg" viewBox="0 0 193 193"><path d="M60.455 96.265c0 2.789-.959 5.49-2.44 7.93l29.452 29.452c.959-.348 1.568-.958 2.44-1.22V58.099L58.712 89.294c1.132 2.092 1.742 4.444 1.742 6.971zM135.479 89.73l-30.846-30.847v73.283c.958.61 1.568.958 2.44 1.568l29.452-29.452a15.113 15.113 0 0 1-2.44-8.278c0-2.266.523-4.357 1.394-6.274z" fill="#1A1A1F"/><path d="M186.542 83.98L109.251 6.688c-3.05-3.399-7.668-5.229-12.286-5.229-4.619 0-8.888 1.83-12.287 5.229L7.04 83.979c-3.398 3.05-5.228 7.668-5.228 12.286 0 4.619 1.83 8.888 5.228 12.287l77.64 77.29c3.05 3.399 7.667 5.229 12.286 5.229 4.618 0 9.236-1.83 12.286-5.229l77.291-77.29c3.398-3.05 5.228-7.668 5.228-12.287 0-4.618-1.917-8.888-5.228-12.286zm-37.731 27.012c-1.568 0-3.05-.349-4.618-.959l-31.021 31.021c.61 2.178 1.22 4.27 1.22 6.709 0 9.498-7.668 17.166-17.166 17.166-9.498 0-17.166-7.668-17.166-17.166 0-2.439.61-4.618 1.569-6.709L50.608 110.12c-1.569.61-3.05.959-4.88.959-8.017 0-14.726-6.71-14.726-14.726 0-8.017 6.448-14.727 14.726-14.727 2.091 0 4.183.436 6.013 1.307l32.24-32.24c-.871-1.917-1.394-3.921-1.394-6.187 0-8.017 6.448-14.726 14.726-14.726 7.93 0 14.726 6.448 14.726 14.726 0 2.353-.61 4.618-1.568 6.622l31.892 31.718c1.917-.958 4.183-1.568 6.535-1.568 8.017 0 14.727 6.71 14.727 14.987-.088 8.017-6.536 14.727-14.814 14.727z" fill="#1A1A1F"/><path d="M108.554 148.199c0 6.361-5.054 11.415-11.415 11.415-6.361 0-11.415-5.054-11.415-11.415 0-6.361 5.054-11.415 11.415-11.415 6.361.262 11.415 5.316 11.415 11.415zM105.243 44.419c0 4.618-3.66 8.278-8.278 8.278-4.619 0-8.279-3.66-8.279-8.278s3.66-8.278 8.278-8.278c4.619 0 8.279 3.747 8.279 8.278zM53.396 96.265c0 4.619-3.66 8.278-8.278 8.278s-8.278-3.659-8.278-8.278c0-4.618 3.66-8.278 8.278-8.278s8.278 3.66 8.278 8.278zM156.741 96.265c0 4.619-3.66 8.278-8.278 8.278-4.619 0-8.278-3.659-8.278-8.278 0-4.618 3.659-8.278 8.278-8.278 4.618 0 8.278 3.66 8.278 8.278z" fill="#1A1A1F"/></svg>
